assets/logos/logo-mapi.svg

<svg width="203" height="100" viewBox="0 0 203 100" fill="none" xmlns="http://www.w3.org/2000/svg">
<g clip-path="url(#clip0_13964_38180)">
<g filter="url(#filter0_d_13964_38180)">
<path d="M10.1333 82.8261C9.41708 82.8762 8.79587 82.3362 8.74579 81.62L4.94127 27.2128C4.89119 26.4966 5.4312 25.8754 6.14741 25.8253L17.8457 25.0073C18.2655 24.978 18.6736 25.1536 18.9408 25.4788L39.6535 50.6855C40.3239 51.5014 39.7932 52.734 38.7397 52.8076L36.6457 52.9541C35.5898 53.0279 34.893 51.8765 35.4482 50.9753L52.6098 23.1202C52.8296 22.7635 53.2079 22.5345 53.6259 22.5053L65.1533 21.6992C65.8696 21.6492 66.4908 22.1892 66.5408 22.9054L70.3454 77.3125C70.3954 78.0288 69.8554 78.65 69.1392 78.7L56.9398 79.5531C56.2236 79.6032 55.6023 79.0632 55.5523 78.347L54.2764 60.1007C53.9347 55.2149 53.7358 50.8101 53.6796 46.8863C53.6783 44.1707 53.7558 41.4626 53.912 38.7621C53.969 37.7773 55.2796 37.5389 55.6958 38.4332C55.8252 38.7112 55.8143 39.0341 55.6666 39.3028L41.3606 65.3164C41.1477 65.7035 40.7529 65.956 40.3122 65.9868L36.3568 66.2634C35.9133 66.2944 35.4847 66.0967 35.2205 65.7391L17.7526 42.0977C17.579 41.8628 17.5223 41.5616 17.5985 41.2797C17.8576 40.322 19.1909 40.3511 19.3836 41.3243C19.8659 43.7598 20.2681 46.2486 20.5904 48.791C21.1276 52.572 21.5803 57.0955 21.9485 62.3613L23.2244 80.6076C23.2745 81.3238 22.7345 81.945 22.0182 81.9951L10.1333 82.8261Z" fill="#006DEC"/>
<path d="M96.9889 77.5709C93.406 77.8214 90.1076 77.0701 87.0937 75.317C84.0798 73.5639 81.6138 71.0633 79.6955 67.8152C77.7773 64.5671 76.6663 60.7716 76.3626 56.4287C76.0589 52.0858 76.6327 48.1998 78.0841 44.7706C79.5859 41.2834 81.7361 38.4872 84.5348 36.3822C87.3296 34.2229 90.5999 33.0123 94.3457 32.7504C96.4629 32.6023 98.4129 32.7933 100.196 33.3232C102.029 33.7951 103.635 34.5284 105.014 35.523C106.447 36.5138 107.674 37.6827 108.696 39.0296C109.393 39.949 109.967 40.9277 110.419 41.966C110.72 42.6582 110.141 43.3739 109.39 43.302C108.875 43.2528 108.471 42.8385 108.435 42.3226L107.854 34.0091C107.804 33.2929 108.344 32.6717 109.06 32.6216L120.594 31.815C121.31 31.7649 121.931 32.3049 121.982 33.0212L124.812 73.5037C124.862 74.2199 124.322 74.8411 123.606 74.8912L111.909 75.7093C111.193 75.7594 110.572 75.2194 110.522 74.5031L109.959 66.4624C109.92 65.8933 110.319 65.3875 110.882 65.2948C111.65 65.1684 112.3 65.854 112.048 66.5898C111.707 67.5857 111.245 68.5543 110.662 69.4957C109.78 70.9212 108.644 72.2281 107.254 73.4163C105.915 74.5464 104.372 75.4999 102.626 76.2766C100.877 76.999 98.9975 77.4304 96.9889 77.5709ZM99.4643 67.333C101.636 67.1811 103.5 66.5325 105.056 65.3872C106.613 64.2419 107.761 62.716 108.5 60.8095C109.29 58.8449 109.598 56.6141 109.423 54.1169C109.253 51.674 108.641 49.5619 107.589 47.7807C106.592 45.9957 105.242 44.6445 103.542 43.7269C101.837 42.755 99.8991 42.345 97.7276 42.4969C95.6104 42.6449 93.7755 43.3188 92.2228 44.5184C90.7206 45.6599 89.5726 47.1858 88.7788 49.0961C87.985 51.0064 87.6735 53.183 87.8443 55.6258C88.0189 58.123 88.6341 60.2894 89.6898 62.1249C90.7418 63.9061 92.091 65.2573 93.7374 66.1787C95.4382 67.0963 97.3471 67.481 99.4643 67.333Z" fill="#006DEC"/>
<path d="M133.288 92.2164C132.572 92.2665 131.951 91.7265 131.901 91.0103L127.817 32.6131C127.767 31.8969 128.307 31.2757 129.023 31.2256L140.74 30.4063C141.439 30.3574 142.051 30.8717 142.123 31.5689L142.853 38.5989C142.922 39.2675 142.3 39.7979 141.65 39.6228C141.182 39.4964 140.876 39.0374 140.994 38.5664C141.359 37.1095 142.115 35.7218 143.261 34.4032C144.679 32.8312 146.468 31.5059 148.629 30.4274C150.791 29.3489 153.093 28.7242 155.536 28.5534C159.281 28.2915 162.661 29.0371 165.675 30.7902C168.739 32.4852 171.231 34.9568 173.149 38.2049C175.118 41.3949 176.254 45.1613 176.558 49.5042C176.857 53.7929 176.284 57.6789 174.836 61.1623C173.389 64.6458 171.267 67.4672 168.473 69.6265C165.674 71.7315 162.402 72.9149 158.656 73.1769C156.159 73.3515 153.738 73.0571 151.393 72.2937C149.099 71.4721 147.11 70.3293 145.425 68.8651C144.056 67.6743 143.076 66.3841 142.486 64.9945C142.251 64.4423 142.527 63.8249 143.061 63.5526C143.861 63.1452 144.818 63.6864 144.88 64.5821L146.656 89.9785C146.706 90.6947 146.166 91.3159 145.45 91.366L133.288 92.2164ZM155.355 63.4247C157.473 63.2766 159.309 62.6299 160.866 61.4846C162.422 60.3393 163.598 58.8115 164.391 56.9012C165.181 54.9366 165.491 52.7329 165.32 50.29C165.149 47.8471 164.538 45.7351 163.486 43.9539C162.434 42.1727 161.058 40.8233 159.357 39.9057C157.711 38.9844 155.802 38.5996 153.63 38.7515C151.459 38.9033 149.595 39.5519 148.038 40.6972C146.478 41.7883 145.303 43.3161 144.513 45.2806C143.719 47.1909 143.407 49.3675 143.578 51.8104C143.749 54.2533 144.362 56.3925 145.418 58.228C146.47 60.0092 147.846 61.3585 149.547 62.2761C151.248 63.1937 153.184 63.5765 155.355 63.4247Z" fill="#006DEC"/>
</g>
<g filter="url(#filter1_d_13964_38180)">
<path d="M178.357 9.91586C178.034 5.13795 181.454 1.31239 186.335 0.993377C191.028 0.687498 194.893 4.11501 195.226 8.88106C195.562 13.6748 192.146 17.5503 187.309 17.8662C182.484 18.1813 178.689 14.8101 178.357 9.91586Z" fill="#FF934F"/>
</g>
<g filter="url(#filter2_d_13964_38180)">
<path d="M196.975 48.43C197.424 54.8468 197.833 61.2663 198.35 67.6848C198.476 69.2477 198.057 69.7151 196.712 69.7769C192.828 69.9583 188.946 70.2491 185.073 70.5843C184.04 70.6759 183.686 70.3721 183.601 69.1606C182.676 56.0133 181.723 42.8616 180.73 29.7191C180.63 28.3605 181.021 27.9789 182.152 27.9191C186.084 27.7085 190.013 27.4403 193.93 27.089C195.209 26.9738 195.547 27.5171 195.635 28.8573C196.04 35.3865 196.519 41.9107 196.975 48.43Z" fill="#006DEC"/>
</g>
</g>
<defs>
<filter id="filter0_d_13964_38180" x="0.938477" y="21.6958" width="179.696" height="78.5239" filterUnits="userSpaceOnUse" color-interpolation-filters="sRGB">
<feFlood flood-opacity="0" result="BackgroundImageFix"/>
<feColorMatrix in="SourceAlpha" type="matrix" values="0 0 0 0 0 0 0 0 0 0 0 0 0 0 0 0 0 0 127 0" result="hardAlpha"/>
<feOffset dy="4"/>
<feGaussianBlur stdDeviation="2"/>
<feComposite in2="hardAlpha" operator="out"/>
<feColorMatrix type="matrix" values="0 0 0 0 0 0 0 0 0 0 0 0 0 0 0 0 0 0 0.25 0"/>
<feBlend mode="normal" in2="BackgroundImageFix" result="effect1_dropShadow_13964_38180"/>
<feBlend mode="normal" in="SourceGraphic" in2="effect1_dropShadow_13964_38180" result="shape"/>
</filter>
<filter id="filter1_d_13964_38180" x="174.336" y="0.974609" width="24.9131" height="24.9121" filterUnits="userSpaceOnUse" color-interpolation-filters="sRGB">
<feFlood flood-opacity="0" result="BackgroundImageFix"/>
<feColorMatrix in="SourceAlpha" type="matrix" values="0 0 0 0 0 0 0 0 0 0 0 0 0 0 0 0 0 0 127 0" result="hardAlpha"/>
<feOffset dy="4"/>
<feGaussianBlur stdDeviation="2"/>
<feComposite in2="hardAlpha" operator="out"/>
<feColorMatrix type="matrix" values="0 0 0 0 0 0 0 0 0 0 0 0 0 0 0 0 0 0 0.25 0"/>
<feBlend mode="normal" in2="BackgroundImageFix" result="effect1_dropShadow_13964_38180"/>
<feBlend mode="normal" in="SourceGraphic" in2="effect1_dropShadow_13964_38180" result="shape"/>
</filter>
<filter id="filter2_d_13964_38180" x="176.715" y="27.0742" width="25.6562" height="51.5254" filterUnits="userSpaceOnUse" color-interpolation-filters="sRGB">
<feFlood flood-opacity="0" result="BackgroundImageFix"/>
<feColorMatrix in="SourceAlpha" type="matrix" values="0 0 0 0 0 0 0 0 0 0 0 0 0 0 0 0 0 0 127 0" result="hardAlpha"/>
<feOffset dy="4"/>
<feGaussianBlur stdDeviation="2"/>
<feComposite in2="hardAlpha" operator="out"/>
<feColorMatrix type="matrix" values="0 0 0 0 0 0 0 0 0 0 0 0 0 0 0 0 0 0 0.25 0"/>
<feBlend mode="normal" in2="BackgroundImageFix" result="effect1_dropShadow_13964_38180"/>
<feBlend mode="normal" in="SourceGraphic" in2="effect1_dropShadow_13964_38180" result="shape"/>
</filter>
<clipPath id="clip0_13964_38180">
<rect width="203" height="100" fill="white"/>
</clipPath>
</defs>
</svg>

<svg xmlns="http://www.w3.org/2000/svg" width="203" height="100" fill="none" viewBox="0 0 203 100"><g clip-path="url(#a)"><g fill="#006dec" filter="url(#b)"><path d="M10.133 82.826a1.3 1.3 0 0 1-1.387-1.206L4.94 27.213a1.3 1.3 0 0 1 1.206-1.388l11.699-.818a1.3 1.3 0 0 1 1.095.472l20.713 25.207a1.3 1.3 0 0 1-.914 2.122l-2.094.146c-1.056.074-1.753-1.078-1.198-1.979L52.61 23.12a1.3 1.3 0 0 1 1.016-.615l11.527-.806a1.3 1.3 0 0 1 1.388 1.206l3.804 54.408A1.3 1.3 0 0 1 69.14 78.7l-12.2.853a1.3 1.3 0 0 1-1.387-1.206l-1.276-18.246q-.512-7.328-.596-13.215-.002-4.072.232-8.124c.057-.985 1.368-1.223 1.784-.329a.96.96 0 0 1-.03.87L41.362 65.316a1.3 1.3 0 0 1-1.049.67l-3.955.277a1.3 1.3 0 0 1-1.136-.524L17.753 42.098a.96.96 0 0 1-.154-.818c.259-.958 1.592-.929 1.785.044a109 109 0 0 1 1.206 7.467q.806 5.672 1.358 13.57l1.276 18.247a1.3 1.3 0 0 1-1.206 1.387zm86.856-5.256q-5.374.376-9.895-2.253t-7.398-7.502q-2.879-4.872-3.333-11.386-.456-6.515 1.721-11.658 2.253-5.232 6.45-8.389 4.194-3.24 9.812-3.632 3.176-.222 5.85.573 2.75.708 4.818 2.2a16 16 0 0 1 3.682 3.507q1.045 1.379 1.723 2.936c.301.692-.278 1.408-1.029 1.336a1.06 1.06 0 0 1-.955-.98l-.581-8.313a1.3 1.3 0 0 1 1.206-1.387l11.534-.807c.716-.05 1.337.49 1.388 1.206l2.83 40.483a1.3 1.3 0 0 1-1.206 1.387l-11.697.818a1.3 1.3 0 0 1-1.387-1.206l-.563-8.04c-.039-.57.36-1.075.923-1.168.768-.127 1.418.559 1.166 1.295a14.3 14.3 0 0 1-1.386 2.906q-1.323 2.138-3.408 3.92-2.009 1.695-4.628 2.86-2.624 1.084-5.637 1.295m2.475-10.237q3.258-.227 5.592-1.946 2.336-1.718 3.444-4.578 1.185-2.946.923-6.692-.255-3.665-1.834-6.336-1.496-2.677-4.047-4.054-2.558-1.458-5.814-1.23-3.177.222-5.505 2.021-2.253 1.713-3.444 4.578t-.935 6.53q.262 3.745 1.846 6.499 1.578 2.671 4.047 4.054 2.551 1.376 5.727 1.154m33.824 24.882a1.3 1.3 0 0 1-1.387-1.206l-4.084-58.397a1.3 1.3 0 0 1 1.206-1.387l11.717-.82a1.3 1.3 0 0 1 1.383 1.163l.73 7.03a.958.958 0 0 1-1.203 1.024c-.468-.127-.774-.586-.656-1.057q.548-2.185 2.267-4.163 2.127-2.358 5.368-3.976a18.2 18.2 0 0 1 6.907-1.874q5.618-.393 10.139 2.237 4.596 2.543 7.474 7.415 2.953 4.785 3.409 11.3.45 6.432-1.722 11.657-2.171 5.226-6.363 8.464-4.198 3.158-9.817 3.55a19 19 0 0 1-7.263-.882q-3.44-1.233-5.968-3.429-2.054-1.785-2.939-3.87c-.235-.553.041-1.17.575-1.442.8-.408 1.757.133 1.819 1.03l1.776 25.396a1.3 1.3 0 0 1-1.206 1.387zm22.067-28.791q3.176-.222 5.511-1.94t3.525-4.584q1.185-2.946.929-6.611t-1.834-6.336-4.129-4.048q-2.469-1.382-5.727-1.154-3.257.227-5.592 1.945-2.34 1.637-3.525 4.584-1.191 2.865-.935 6.53.256 3.663 1.84 6.417 1.578 2.671 4.129 4.048 2.552 1.376 5.808 1.149"/></g><g filter="url(#c)"><path fill="#ff934f" d="M178.357 9.916c-.323-4.778 3.097-8.604 7.978-8.923 4.693-.306 8.558 3.122 8.891 7.888.336 4.794-3.08 8.67-7.917 8.985-4.825.315-8.62-3.056-8.952-7.95"/></g><g filter="url(#d)"><path fill="#006dec" d="M196.975 48.43c.449 6.417.858 12.836 1.375 19.255.126 1.563-.293 2.03-1.638 2.092-3.884.181-7.766.472-11.639.807-1.033.092-1.387-.212-1.472-1.423a7647 7647 0 0 0-2.871-39.442c-.1-1.359.291-1.74 1.422-1.8a328 328 0 0 0 11.778-.83c1.279-.115 1.617.428 1.705 1.768.405 6.53.884 13.054 1.34 19.573"/></g></g><defs><filter id="b" width="179.696" height="78.524" x=".938" y="21.696" color-interpolation-filters="sRGB" filterUnits="userSpaceOnUse"><feFlood flood-opacity="0" result="BackgroundImageFix"/><feColorMatrix in="SourceAlpha" result="hardAlpha" values="0 0 0 0 0 0 0 0 0 0 0 0 0 0 0 0 0 0 127 0"/><feOffset dy="4"/><feGaussianBlur stdDeviation="2"/><feComposite in2="hardAlpha" operator="out"/><feColorMatrix values="0 0 0 0 0 0 0 0 0 0 0 0 0 0 0 0 0 0 0.25 0"/><feBlend in2="BackgroundImageFix" result="effect1_dropShadow_13964_38180"/><feBlend in="SourceGraphic" in2="effect1_dropShadow_13964_38180" result="shape"/></filter><filter id="c" width="24.913" height="24.912" x="174.336" y=".975" color-interpolation-filters="sRGB" filterUnits="userSpaceOnUse"><feFlood flood-opacity="0" result="BackgroundImageFix"/><feColorMatrix in="SourceAlpha" result="hardAlpha" values="0 0 0 0 0 0 0 0 0 0 0 0 0 0 0 0 0 0 127 0"/><feOffset dy="4"/><feGaussianBlur stdDeviation="2"/><feComposite in2="hardAlpha" operator="out"/><feColorMatrix values="0 0 0 0 0 0 0 0 0 0 0 0 0 0 0 0 0 0 0.25 0"/><feBlend in2="BackgroundImageFix" result="effect1_dropShadow_13964_38180"/><feBlend in="SourceGraphic" in2="effect1_dropShadow_13964_38180" result="shape"/></filter><filter id="d" width="25.656" height="51.525" x="176.715" y="27.074" color-interpolation-filters="sRGB" filterUnits="userSpaceOnUse"><feFlood flood-opacity="0" result="BackgroundImageFix"/><feColorMatrix in="SourceAlpha" result="hardAlpha" values="0 0 0 0 0 0 0 0 0 0 0 0 0 0 0 0 0 0 127 0"/><feOffset dy="4"/><feGaussianBlur stdDeviation="2"/><feComposite in2="hardAlpha" operator="out"/><feColorMatrix values="0 0 0 0 0 0 0 0 0 0 0 0 0 0 0 0 0 0 0.25 0"/><feBlend in2="BackgroundImageFix" result="effect1_dropShadow_13964_38180"/><feBlend in="SourceGraphic" in2="effect1_dropShadow_13964_38180" result="shape"/></filter><clipPath id="a"><path fill="#fff" d="M0 0h203v100H0z"/></clipPath></defs></svg>
